images/icon_advantage-1.svg

<svg width="32" height="32" viewBox="0 0 32 32" fill="none" xmlns="http://www.w3.org/2000/svg">
<path d="M16 32C11.7262 32 7.70831 30.3357 4.68625 27.3137C1.66431 24.2917 0 20.2738 0 16C0 11.7262 1.66431 7.70831 4.68625 4.68625C7.70831 1.66431 11.7262 0 16 0C20.2738 0 24.2917 1.66431 27.3137 4.68625C30.3357 7.70831 32 11.7262 32 16C32 20.2738 30.3357 24.2917 27.3137 27.3137C24.2917 30.3357 20.2738 32 16 32ZM16 1.875C12.2271 1.875 8.68 3.34425 6.01213 6.01213C3.34425 8.68 1.875 12.2271 1.875 16C1.875 19.7729 3.34425 23.32 6.01213 25.9879C8.68 28.6558 12.2271 30.125 16 30.125C19.7729 30.125 23.32 28.6558 25.9879 25.9879C28.6558 23.32 30.125 19.7729 30.125 16C30.125 12.2271 28.6558 8.68 25.9879 6.01213C23.32 3.34425 19.7729 1.875 16 1.875Z" fill="black"/>
<path d="M15.0625 3.75225H16.9375V6.25425H15.0625V3.75225Z" fill="black"/>
<path d="M22.2252 8.44742L23.9941 6.67851L25.3197 8.00413L23.5508 9.77304L22.2252 8.44742Z" fill="black"/>
<path d="M25.7457 15.0625H28.2477V16.9375H25.7457V15.0625Z" fill="black"/>
<path d="M22.2235 23.5542L23.5491 22.2286L25.3181 23.9975L23.9924 25.3231L22.2235 23.5542Z" fill="black"/>
<path d="M15.0625 25.7458H16.9375V28.2478H15.0625V25.7458Z" fill="black"/>
<path d="M6.6734 23.9959L8.44231 22.2269L9.76794 23.5526L7.99903 25.3215L6.6734 23.9959Z" fill="black"/>
<path d="M3.75226 15.0625H6.25426V16.9375H3.75226V15.0625Z" fill="black"/>
<path d="M6.67505 8.00248L8.00067 6.67686L9.76959 8.44577L8.44396 9.77139L6.67505 8.00248Z" fill="black"/>
<path d="M22.6182 16.9375H15.0625V9.38175H16.9375V15.0625H22.6182V16.9375Z" fill="black"/>
</svg>

<svg width="32" height="32" fill="none" xmlns="http://www.w3.org/2000/svg"><path d="M16 32a15.895 15.895 0 01-11.314-4.686A15.895 15.895 0 010 16c0-4.274 1.664-8.292 4.686-11.314A15.896 15.896 0 0116 0c4.274 0 8.292 1.664 11.314 4.686A15.895 15.895 0 0132 16c0 4.274-1.664 8.292-4.686 11.314A15.895 15.895 0 0116 32zm0-30.125c-3.773 0-7.32 1.47-9.988 4.137A14.032 14.032 0 001.875 16c0 3.773 1.47 7.32 4.137 9.988A14.032 14.032 0 0016 30.125c3.773 0 7.32-1.47 9.988-4.137A14.033 14.033 0 0030.125 16c0-3.773-1.47-7.32-4.137-9.988A14.033 14.033 0 0016 1.875z" fill="#000"/><path d="M15.063 3.752h1.874v2.502h-1.875V3.752zm7.162 4.695l1.77-1.768 1.325 1.325-1.77 1.769-1.325-1.326zm3.521 6.616h2.502v1.874h-2.502v-1.875zm-3.522 8.491l1.325-1.325 1.77 1.768-1.327 1.326-1.768-1.769zm-7.161 2.192h1.874v2.502h-1.875v-2.502zm-8.39-1.75l1.77-1.77 1.325 1.327-1.769 1.768-1.326-1.325zm-2.921-8.933h2.502v1.874H3.752v-1.875zm2.923-7.061l1.326-1.325L9.77 8.446 8.444 9.77 6.675 8.002zm15.943 8.936h-7.555V9.381h1.874v5.68h5.681v1.876z" fill="#000"/></svg>
